elementary-xfce/mimes/24/multipart-encrypted.svg

<?xml version="1.0" encoding="UTF-8" standalone="no"?>
<!-- Created with Inkscape (http://www.inkscape.org/) -->

<svg
   xmlns:dc="http://purl.org/dc/elements/1.1/"
   xmlns:cc="http://creativecommons.org/ns#"
   xmlns:rdf="http://www.w3.org/1999/02/22-rdf-syntax-ns#"
   xmlns:svg="http://www.w3.org/2000/svg"
   xmlns="http://www.w3.org/2000/svg"
   xmlns:xlink="http://www.w3.org/1999/xlink"
   xmlns:sodipodi="http://sodipodi.sourceforge.net/DTD/sodipodi-0.dtd"
   xmlns:inkscape="http://www.inkscape.org/namespaces/inkscape"
   version="1.0"
   width="24"
   height="24"
   id="svg3372"
   inkscape:version="0.48.3.1 r9886"
   sodipodi:docname="application-x-ole-storage.svg">
  <metadata
     id="metadata106269">
    <rdf:RDF>
      <cc:Work
         rdf:about="">
        <dc:format>image/svg+xml</dc:format>
        <dc:type
           rdf:resource="http://purl.org/dc/dcmitype/StillImage" />
      </cc:Work>
    </rdf:RDF>
  </metadata>
  <sodipodi:namedview
     pagecolor="#ffffff"
     bordercolor="#666666"
     borderopacity="1"
     objecttolerance="10"
     gridtolerance="10"
     guidetolerance="10"
     inkscape:pageopacity="0"
     inkscape:pageshadow="2"
     inkscape:window-width="640"
     inkscape:window-height="480"
     id="namedview106267" />
  <defs
     id="defs3374">
    <linearGradient
       id="linearGradient5048">
      <stop
         id="stop5050"
         style="stop-color:#000000;stop-opacity:0"
         offset="0" />
      <stop
         id="stop5056"
         style="stop-color:#000000;stop-opacity:1"
         offset="0.5" />
      <stop
         id="stop5052"
         style="stop-color:#000000;stop-opacity:0"
         offset="1" />
    </linearGradient>
    <linearGradient
       x1="302.85715"
       y1="366.64789"
       x2="302.85715"
       y2="609.50507"
       id="linearGradient2447"
       xlink:href="#linearGradient5048"
       gradientUnits="userSpaceOnUse"
       gradientTransform="matrix(3.52071e-2,0,0,8.23529e-3,-0.724852,18.980551)" />
    <radialGradient
       cx="605.71429"
       cy="486.64789"
       r="117.14286"
       fx="605.71429"
       fy="486.64789"
       id="radialGradient2444"
       xlink:href="#linearGradient5060"
       gradientUnits="userSpaceOnUse"
       gradientTransform="matrix(-1.204859e-2,0,0,8.23529e-3,10.761206,18.980568)" />
    <linearGradient
       id="linearGradient5060">
      <stop
         id="stop5062"
         style="stop-color:#000000;stop-opacity:1"
         offset="0" />
      <stop
         id="stop5064"
         style="stop-color:#000000;stop-opacity:0"
         offset="1" />
    </linearGradient>
    <radialGradient
       cx="605.71429"
       cy="486.64789"
       r="117.14286"
       fx="605.71429"
       fy="486.64789"
       id="radialGradient2441"
       xlink:href="#linearGradient5060"
       gradientUnits="userSpaceOnUse"
       gradientTransform="matrix(1.204859e-2,0,0,8.23529e-3,13.238794,18.980568)" />
    <linearGradient
       id="linearGradient3104">
      <stop
         id="stop3106"
         style="stop-color:#aaaaaa;stop-opacity:1"
         offset="0" />
      <stop
         id="stop3108"
         style="stop-color:#c8c8c8;stop-opacity:1"
         offset="1" />
    </linearGradient>
    <linearGradient
       x1="-51.786404"
       y1="50.786446"
       x2="-51.786404"
       y2="2.9062471"
       id="linearGradient2438"
       xlink:href="#linearGradient3104"
       gradientUnits="userSpaceOnUse"
       gradientTransform="matrix(0.3922135,0,0,0.4473607,29.199293,-1.2386997)" />
    <linearGradient
       id="linearGradient3600">
      <stop
         id="stop3602"
         style="stop-color:#f4f4f4;stop-opacity:1"
         offset="0" />
      <stop
         id="stop3604"
         style="stop-color:#dbdbdb;stop-opacity:1"
         offset="1" />
    </linearGradient>
    <linearGradient
       x1="25.132275"
       y1="0.98520643"
       x2="25.132275"
       y2="47.013336"
       id="linearGradient2435"
       xlink:href="#linearGradient3600"
       gradientUnits="userSpaceOnUse"
       gradientTransform="matrix(0.4857154,0,0,0.4780255,0.3428305,-0.7059501)" />
    <radialGradient
       cx="102"
       cy="112.3047"
       r="139.55859"
       id="XMLID_8_"
       gradientUnits="userSpaceOnUse">
      <stop
         id="stop41"
         style="stop-color:#b7b8b9;stop-opacity:1"
         offset="0" />
      <stop
         id="stop47"
         style="stop-color:#ececec;stop-opacity:1"
         offset="0.17402567" />
      <stop
         id="stop49"
         style="stop-color:#fafafa;stop-opacity:0"
         offset="0.23907544" />
      <stop
         id="stop51"
         style="stop-color:#ffffff;stop-opacity:0"
         offset="0.30111277" />
      <stop
         id="stop53"
         style="stop-color:#fafafa;stop-opacity:0"
         offset="0.53130001" />
      <stop
         id="stop55"
         style="stop-color:#ebecec;stop-opacity:0"
         offset="0.84490001" />
      <stop
         id="stop57"
         style="stop-color:#e1e2e3;stop-opacity:0"
         offset="1" />
    </radialGradient>
    <radialGradient
       cx="92.090363"
       cy="102.70267"
       r="139.55859"
       fx="92.090363"
       fy="102.70267"
       id="radialGradient2432"
       xlink:href="#XMLID_8_"
       gradientUnits="userSpaceOnUse"
       gradientTransform="matrix(0.1702128,0,0,-0.1907226,1.1063831,23.716504)" />
    <linearGradient
       id="linearGradient3211">
      <stop
         id="stop3213"
         style="stop-color:#ffffff;stop-opacity:1"
         offset="0" />
      <stop
         id="stop3215"
         style="stop-color:#ffffff;stop-opacity:0"
         offset="1" />
    </linearGradient>
    <linearGradient
       x1="24"
       y1="1.9999999"
       x2="24"
       y2="46.01725"
       id="linearGradient2429"
       xlink:href="#linearGradient3211"
       gradientUnits="userSpaceOnUse"
       gradientTransform="matrix(0.4545444,0,0,0.4651153,1.0909345,0.3372293)" />
    <linearGradient
       id="linearGradient8589">
      <stop
         id="stop8591"
         style="stop-color:#fefefe;stop-opacity:1"
         offset="0" />
      <stop
         id="stop8593"
         style="stop-color:#cbcbcb;stop-opacity:1"
         offset="1" />
    </linearGradient>
    <linearGradient
       x1="32.892288"
       y1="8.0590115"
       x2="36.358372"
       y2="5.4565363"
       id="linearGradient2425"
       xlink:href="#linearGradient8589"
       gradientUnits="userSpaceOnUse"
       gradientTransform="matrix(0.4778466,0,0,0.5524833,0.3722548,-7.61283e-2)" />
  </defs>
  <g
     id="layer1">
    <rect
       width="17"
       height="1.9999981"
       x="3.5000005"
       y="21.999998"
       id="rect2879"
       style="opacity:0.15;fill:url(#linearGradient2447);fill-opacity:1;fill-rule:nonzero;stroke:none;stroke-width:1;marker:none;visibility:visible;display:inline;overflow:visible" />
    <path
       d="M 3.5,22.000086 C 3.5,22.000086 3.5,23.999975 3.5,23.999975 C 2.8795275,24.00374 2,23.551901 2,22.999901 C 2,22.447902 2.6924,22.000086 3.5,22.000086 z"
       id="path2881"
       style="opacity:0.15;fill:url(#radialGradient2444);fill-opacity:1;fill-rule:nonzero;stroke:none;stroke-width:1;marker:none;visibility:visible;display:inline;overflow:visible" />
    <path
       d="M 20.5,22.000086 C 20.5,22.000086 20.5,23.999975 20.5,23.999975 C 21.120472,24.003775 22,23.551901 22,22.999901 C 22,22.447902 21.307599,22.000086 20.5,22.000086 L 20.5,22.000086 z"
       id="path2883"
       style="opacity:0.15;fill:url(#radialGradient2441);fill-opacity:1;fill-rule:nonzero;stroke:none;stroke-width:1;marker:none;visibility:visible;display:inline;overflow:visible" />
    <path
       d="M 3.4999617,0.49996097 C 7.3955416,0.49996097 11.104417,0.49996097 15,0.49996097 C 15.683368,0.73725787 19.541325,3.628131 20.5,5.5 C 20.5,11.229157 20.500039,16.770881 20.500039,22.500039 C 14.833346,22.500039 9.1666545,22.500039 3.4999617,22.500039 C 3.4999617,15.166679 3.4999617,7.8333189 3.4999617,0.49996097 L 3.4999617,0.49996097 z"
       id="path4160"
       style="fill:url(#linearGradient2435);fill-opacity:1;stroke:url(#linearGradient2438);stroke-width:0.99992162;stroke-linecap:butt;stroke-linejoin:round;stroke-miterlimit:4;stroke-dasharray:none;stroke-dashoffset:0;stroke-opacity:1;display:inline" />
    <path
       d="M 4.1702128,22 C 4.0764256,22 4,21.914366 4,21.809277 L 4,1.2112452 C 4,1.1059667 4.0764256,1.0205233 4.1702128,1.0205233 C 7.6916683,1.0732401 11.594065,0.94166522 15.11124,1.0336487 L 19.950127,5.3607855 L 20,21.809277 C 20,21.914366 19.923743,22 19.829786,22 L 4.1702128,22 z"
       id="path4191"
       style="fill:url(#radialGradient2432);fill-opacity:1" />
    <path
       d="M 19.500001,5.6770357 C 19.500001,10.885341 19.500001,16.291693 19.500001,21.5 C 14.500001,21.5 9.5000012,21.5 4.5,21.5 C 4.5,14.83333 4.5,8.1666657 4.5,1.4999999 C 7.9372614,1.4999999 11.456499,1.4999999 14.893761,1.4999999"
       id="path2435"
       style="opacity:0.6;fill:none;stroke:url(#linearGradient2429);stroke-width:0.99999988;stroke-linecap:butt;stroke-linejoin:miter;stroke-miterlimit:4;stroke-dasharray:none;stroke-dashoffset:0;stroke-opacity:1;display:inline" />
    <path
       d="M 10,16 L 8,16 L 8,18 L 10,18 L 10,16 z M 12.012626,6 L 10,6 L 10,8 L 12.012626,8 L 12.012626,6 z M 16,6 L 14,6 L 14,8 L 16,8 L 16,6 z M 14,8 L 12.012624,8 L 12.012624,10 L 14,10 L 14,8 z M 8,6 L 6.0000005,6 L 6.0000005,8 L 8,8 L 8,6 z M 18,8 L 16,8 L 16,10 L 18,10 L 18,8 z M 16,10 L 14,10 L 14,12 L 16,12 L 16,10 z M 14,12 L 12.012624,12 L 12.012624,14 L 14,14 L 14,12 z M 12.012626,10 L 10,10 L 10,12 L 12.012626,12 L 12.012626,10 z M 10,8 L 8,8 L 8,10 L 10,10 L 10,8 z M 8,10 L 6.0252485,10 L 6.0252485,12 L 8,12 L 8,10 z M 10,12 L 8,12 L 8,14 L 10,14 L 10,12 z M 8,14 L 6.0252485,14 L 6.0252485,16 L 8,16 L 8,14 z M 18,12 L 16,12 L 16,14 L 18,14 L 18,12 z M 16,14 L 14,14 L 14,16 L 16,16 L 16,14 z M 18,16 L 16,16 L 16,18 L 18,18 L 18,16 z M 16,18 L 14,18 L 14,20 L 16,20 L 16,18 z M 14,16 L 12.012624,16 L 12.012624,18 L 14,18 L 14,16 z M 12.012626,14 L 10,14 L 10,16 L 12.012626,16 L 12.012626,14 z M 11.986693,18 L 10,18 L 10,20 L 11.986693,20 L 11.986693,18 z M 8,18 L 6.0252485,18 L 6.0252485,20 L 8,20 L 8,18 z M 8,4 L 10,4 L 10,6 L 8,6 L 8,4 z M 12,4 L 14,4 L 14,6 L 12,6 L 12,4 z M 15.972462,4 L 17.972462,4 L 17.972462,6 L 15.972462,6 L 15.972462,4 z"
       id="rect4691"
       style="opacity:0.12000002;fill:#000000;fill-opacity:1;fill-rule:evenodd;stroke:none;stroke-width:1.21500194;stroke-linecap:round;stroke-linejoin:round;marker:none;marker-start:none;marker-mid:none;marker-end:none;stroke-miterlimit:4;stroke-dashoffset:0;stroke-opacity:1;visibility:visible;display:inline;overflow:visible" />
    <path
       d="M 14.075474,1 C 15.231777,1.3287671 14.414533,5.6143789 14.414533,5.6143789 C 14.414533,5.6143789 18.929921,5.1866427 20.022243,6.809375 C 21.511396,9.0216317 19.954018,6.1742029 19.848796,5.9876778 C 19.092868,4.6476323 15.982456,1.4405918 14.803387,1.0464703 C 14.715155,1.0169778 14.519511,1 14.075474,1 z"
       id="path3370"
       style="opacity:0.2;fill:#000000;fill-opacity:1;fill-rule:evenodd;stroke:none;display:inline" />
    <path
       d="M 14,1 C 15.526166,1 15,5 15,5 C 15,5 19.992074,4.54674 19.992074,7 C 19.992074,6.4022581 20.047824,5.5215662 19.928004,5.3440674 C 19.088897,4.1010616 16.184239,1.4821803 15.129935,1.0464703 C 15.043957,1.0109384 14.444037,1 14,1 z"
       id="path4474"
       style="fill:url(#linearGradient2425);fill-opacity:1;fill-rule:evenodd;stroke:none;display:inline" />
  </g>
</svg>

<?xml version="1.0" encoding="UTF-8" standalone="no"?>
<!-- Created with Inkscape (http://www.inkscape.org/) -->

<svg
   xmlns:dc="http://purl.org/dc/elements/1.1/"
   xmlns:cc="http://creativecommons.org/ns#"
   xmlns:rdf="http://www.w3.org/1999/02/22-rdf-syntax-ns#"
   xmlns:svg="http://www.w3.org/2000/svg"
   xmlns="http://www.w3.org/2000/svg"
   xmlns:xlink="http://www.w3.org/1999/xlink"
   xmlns:sodipodi="http://sodipodi.sourceforge.net/DTD/sodipodi-0.dtd"
   xmlns:inkscape="http://www.inkscape.org/namespaces/inkscape"
   version="1.0"
   width="24"
   height="24"
   id="svg3372"
   inkscape:version="0.48.3.1 r9886"
   sodipodi:docname="multipart-encrypted.svg">
  <metadata
     id="metadata106269">
    <rdf:RDF>
      <cc:Work
         rdf:about="">
        <dc:format>image/svg+xml</dc:format>
        <dc:type
           rdf:resource="http://purl.org/dc/dcmitype/StillImage" />
      </cc:Work>
    </rdf:RDF>
  </metadata>
  <sodipodi:namedview
     pagecolor="#ffffff"
     bordercolor="#666666"
     borderopacity="1"
     objecttolerance="10"
     gridtolerance="10"
     guidetolerance="10"
     inkscape:pageopacity="0"
     inkscape:pageshadow="2"
     inkscape:window-width="1127"
     inkscape:window-height="621"
     id="namedview106267"
     showgrid="false"
     inkscape:zoom="9.8333333"
     inkscape:cx="12"
     inkscape:cy="12"
     inkscape:window-x="428"
     inkscape:window-y="306"
     inkscape:window-maximized="0"
     inkscape:current-layer="svg3372" />
  <defs
     id="defs3374">
    <linearGradient
       id="linearGradient5048">
      <stop
         id="stop5050"
         style="stop-color:#000000;stop-opacity:0"
         offset="0" />
      <stop
         id="stop5056"
         style="stop-color:#000000;stop-opacity:1"
         offset="0.5" />
      <stop
         id="stop5052"
         style="stop-color:#000000;stop-opacity:0"
         offset="1" />
    </linearGradient>
    <linearGradient
       x1="302.85715"
       y1="366.64789"
       x2="302.85715"
       y2="609.50507"
       id="linearGradient2447"
       xlink:href="#linearGradient5048"
       gradientUnits="userSpaceOnUse"
       gradientTransform="matrix(0.0352071,0,0,0.00823529,-0.724852,18.980551)" />
    <radialGradient
       cx="605.71429"
       cy="486.64789"
       r="117.14286"
       fx="605.71429"
       fy="486.64789"
       id="radialGradient2444"
       xlink:href="#linearGradient5060"
       gradientUnits="userSpaceOnUse"
       gradientTransform="matrix(-0.01204859,0,0,0.00823529,10.761206,18.980568)" />
    <linearGradient
       id="linearGradient5060">
      <stop
         id="stop5062"
         style="stop-color:#000000;stop-opacity:1"
         offset="0" />
      <stop
         id="stop5064"
         style="stop-color:#000000;stop-opacity:0"
         offset="1" />
    </linearGradient>
    <radialGradient
       cx="605.71429"
       cy="486.64789"
       r="117.14286"
       fx="605.71429"
       fy="486.64789"
       id="radialGradient2441"
       xlink:href="#linearGradient5060"
       gradientUnits="userSpaceOnUse"
       gradientTransform="matrix(0.01204859,0,0,0.00823529,13.238794,18.980568)" />
    <linearGradient
       id="linearGradient3104">
      <stop
         id="stop3106"
         style="stop-color:#aaaaaa;stop-opacity:1"
         offset="0" />
      <stop
         id="stop3108"
         style="stop-color:#c8c8c8;stop-opacity:1"
         offset="1" />
    </linearGradient>
    <linearGradient
       x1="-51.786404"
       y1="50.786446"
       x2="-51.786404"
       y2="2.9062471"
       id="linearGradient2438"
       xlink:href="#linearGradient3104"
       gradientUnits="userSpaceOnUse"
       gradientTransform="matrix(0.3922135,0,0,0.4473607,29.199293,-1.2386997)" />
    <linearGradient
       id="linearGradient3600">
      <stop
         id="stop3602"
         style="stop-color:#f4f4f4;stop-opacity:1"
         offset="0" />
      <stop
         id="stop3604"
         style="stop-color:#dbdbdb;stop-opacity:1"
         offset="1" />
    </linearGradient>
    <linearGradient
       x1="25.132275"
       y1="0.98520643"
       x2="25.132275"
       y2="47.013336"
       id="linearGradient2435"
       xlink:href="#linearGradient3600"
       gradientUnits="userSpaceOnUse"
       gradientTransform="matrix(0.4857154,0,0,0.4780255,0.3428305,-0.7059501)" />
    <radialGradient
       cx="102"
       cy="112.3047"
       r="139.55859"
       id="XMLID_8_"
       gradientUnits="userSpaceOnUse">
      <stop
         id="stop41"
         style="stop-color:#b7b8b9;stop-opacity:1"
         offset="0" />
      <stop
         id="stop47"
         style="stop-color:#ececec;stop-opacity:1"
         offset="0.17402567" />
      <stop
         id="stop49"
         style="stop-color:#fafafa;stop-opacity:0"
         offset="0.23907544" />
      <stop
         id="stop51"
         style="stop-color:#ffffff;stop-opacity:0"
         offset="0.30111277" />
      <stop
         id="stop53"
         style="stop-color:#fafafa;stop-opacity:0"
         offset="0.53130001" />
      <stop
         id="stop55"
         style="stop-color:#ebecec;stop-opacity:0"
         offset="0.84490001" />
      <stop
         id="stop57"
         style="stop-color:#e1e2e3;stop-opacity:0"
         offset="1" />
    </radialGradient>
    <radialGradient
       cx="92.090363"
       cy="102.70267"
       r="139.55859"
       fx="92.090363"
       fy="102.70267"
       id="radialGradient2432"
       xlink:href="#XMLID_8_"
       gradientUnits="userSpaceOnUse"
       gradientTransform="matrix(0.1702128,0,0,-0.1907226,1.1063831,23.716504)" />
    <linearGradient
       id="linearGradient3211">
      <stop
         id="stop3213"
         style="stop-color:#ffffff;stop-opacity:1"
         offset="0" />
      <stop
         id="stop3215"
         style="stop-color:#ffffff;stop-opacity:0"
         offset="1" />
    </linearGradient>
    <linearGradient
       x1="24"
       y1="1.9999999"
       x2="24"
       y2="46.01725"
       id="linearGradient2429"
       xlink:href="#linearGradient3211"
       gradientUnits="userSpaceOnUse"
       gradientTransform="matrix(0.4545444,0,0,0.4651153,1.0909345,0.3372293)" />
    <linearGradient
       id="linearGradient8589">
      <stop
         id="stop8591"
         style="stop-color:#fefefe;stop-opacity:1"
         offset="0" />
      <stop
         id="stop8593"
         style="stop-color:#cbcbcb;stop-opacity:1"
         offset="1" />
    </linearGradient>
    <linearGradient
       x1="32.892288"
       y1="8.0590115"
       x2="36.358372"
       y2="5.4565363"
       id="linearGradient2425"
       xlink:href="#linearGradient8589"
       gradientUnits="userSpaceOnUse"
       gradientTransform="matrix(0.4778466,0,0,0.5524833,0.3722548,-0.0761283)" />
    <linearGradient
       inkscape:collect="always"
       xlink:href="#linearGradient8589"
       id="linearGradient3027"
       gradientUnits="userSpaceOnUse"
       gradientTransform="matrix(0.4778466,0,0,0.5524833,0.3722548,-0.0761283)"
       x1="32.892288"
       y1="8.0590115"
       x2="36.358372"
       y2="5.4565363" />
    <linearGradient
       inkscape:collect="always"
       xlink:href="#linearGradient3211"
       id="linearGradient3032"
       gradientUnits="userSpaceOnUse"
       gradientTransform="matrix(0.4545444,0,0,0.4651153,1.0909345,0.3372293)"
       x1="24"
       y1="1.9999999"
       x2="24"
       y2="46.01725" />
    <radialGradient
       inkscape:collect="always"
       xlink:href="#XMLID_8_"
       id="radialGradient3035"
       gradientUnits="userSpaceOnUse"
       gradientTransform="matrix(0.1702128,0,0,-0.1907226,1.1063831,23.716504)"
       cx="92.090363"
       cy="102.70267"
       fx="92.090363"
       fy="102.70267"
       r="139.55859" />
    <linearGradient
       inkscape:collect="always"
       xlink:href="#linearGradient3600"
       id="linearGradient3038"
       gradientUnits="userSpaceOnUse"
       gradientTransform="matrix(0.4857154,0,0,0.4780255,0.3428305,-0.7059501)"
       x1="25.132275"
       y1="0.98520643"
       x2="25.132275"
       y2="47.013336" />
    <linearGradient
       inkscape:collect="always"
       xlink:href="#linearGradient3104"
       id="linearGradient3040"
       gradientUnits="userSpaceOnUse"
       gradientTransform="matrix(0.3922135,0,0,0.4473607,29.199293,-1.2386997)"
       x1="-51.786404"
       y1="50.786446"
       x2="-51.786404"
       y2="2.9062471" />
    <radialGradient
       inkscape:collect="always"
       xlink:href="#linearGradient5060"
       id="radialGradient3043"
       gradientUnits="userSpaceOnUse"
       gradientTransform="matrix(0.01204859,0,0,0.00823529,13.238794,18.980568)"
       cx="605.71429"
       cy="486.64789"
       fx="605.71429"
       fy="486.64789"
       r="117.14286" />
    <radialGradient
       inkscape:collect="always"
       xlink:href="#linearGradient5060"
       id="radialGradient3046"
       gradientUnits="userSpaceOnUse"
       gradientTransform="matrix(-0.01204859,0,0,0.00823529,10.761206,18.980568)"
       cx="605.71429"
       cy="486.64789"
       fx="605.71429"
       fy="486.64789"
       r="117.14286" />
    <linearGradient
       inkscape:collect="always"
       xlink:href="#linearGradient5048"
       id="linearGradient3049"
       gradientUnits="userSpaceOnUse"
       gradientTransform="matrix(0.0352071,0,0,0.00823529,-0.724852,18.980551)"
       x1="302.85715"
       y1="366.64789"
       x2="302.85715"
       y2="609.50507" />
  </defs>
  <rect
     style="opacity:0.15;fill:url(#linearGradient3049);fill-opacity:1;fill-rule:nonzero;stroke:none;stroke-width:1;marker:none;visibility:visible;display:inline;overflow:visible"
     id="rect2879"
     y="21.999998"
     x="3.5000005"
     height="1.9999981"
     width="17" />
  <path
     inkscape:connector-curvature="0"
     style="opacity:0.15;fill:url(#radialGradient3046);fill-opacity:1;fill-rule:nonzero;stroke:none;stroke-width:1;marker:none;visibility:visible;display:inline;overflow:visible"
     id="path2881"
     d="m 3.5,22.000086 c 0,0 0,1.999889 0,1.999889 C 2.8795275,24.00374 2,23.551901 2,22.999901 2,22.447902 2.6924,22.000086 3.5,22.000086 z" />
  <path
     inkscape:connector-curvature="0"
     style="opacity:0.15;fill:url(#radialGradient3043);fill-opacity:1;fill-rule:nonzero;stroke:none;stroke-width:1;marker:none;visibility:visible;display:inline;overflow:visible"
     id="path2883"
     d="m 20.5,22.000086 c 0,0 0,1.999889 0,1.999889 0.620472,0.0038 1.5,-0.448074 1.5,-1.000074 0,-0.551999 -0.692401,-0.999815 -1.5,-0.999815 l 0,0 z" />
  <path
     inkscape:connector-curvature="0"
     style="fill:url(#linearGradient3038);fill-opacity:1;stroke:url(#linearGradient3040);stroke-width:0.99992162;stroke-linecap:butt;stroke-linejoin:round;stroke-miterlimit:4;stroke-opacity:1;stroke-dasharray:none;stroke-dashoffset:0;display:inline"
     id="path4160"
     d="M 3.4999617,0.49996097 C 3.6660291,0.54279646 20.5,0.5 20.5,0.5 c 0,5.729157 3.9e-5,16.270881 3.9e-5,22.000039 -5.666693,0 -11.3333845,0 -17.0000773,0 0,-7.33336 0,-14.6667201 0,-22.00007803 z"
     sodipodi:nodetypes="cccccc" />
  <path
     inkscape:connector-curvature="0"
     style="opacity:0.6;fill:none;stroke:url(#linearGradient3032);stroke-width:0.99999988;stroke-linecap:butt;stroke-linejoin:miter;stroke-miterlimit:4;stroke-opacity:1;stroke-dasharray:none;stroke-dashoffset:0;display:inline"
     id="path2435"
     d="m 19.500001,1 c 0,5.2083053 0,15.291693 0,20.5 -5,0 -9.9999998,0 -15.000001,0 0,-6.66667 0,-13.3333343 0,-20.0000001 3.4372614,0 12.062738,0 15.5,0"
     sodipodi:nodetypes="ccccc" />
  <path
     inkscape:connector-curvature="0"
     style="opacity:0.12000002;fill:#000000;fill-opacity:1;fill-rule:evenodd;stroke:none;stroke-width:1.21500194;marker:none;visibility:visible;display:inline;overflow:visible"
     id="rect4691"
     d="m 10,16 -2,0 0,2 2,0 0,-2 z M 12.012626,6 10,6 l 0,2 2.012626,0 0,-2 z M 16,6 l -2,0 0,2 2,0 0,-2 z m -2,2 -1.987376,0 0,2 L 14,10 14,8 z M 8,6 6.0000005,6 l 0,2 L 8,8 8,6 z m 10,2 -2,0 0,2 2,0 0,-2 z m -2,2 -2,0 0,2 2,0 0,-2 z m -2,2 -1.987376,0 0,2 L 14,14 14,12 z M 12.012626,10 10,10 l 0,2 2.012626,0 0,-2 z M 10,8 8,8 l 0,2 2,0 0,-2 z m -2,2 -1.9747515,0 0,2 L 8,12 8,10 z m 2,2 -2,0 0,2 2,0 0,-2 z m -2,2 -1.9747515,0 0,2 L 8,16 8,14 z m 10,-2 -2,0 0,2 2,0 0,-2 z m -2,2 -2,0 0,2 2,0 0,-2 z m 2,2 -2,0 0,2 2,0 0,-2 z m -2,2 -2,0 0,2 2,0 0,-2 z m -2,-2 -1.987376,0 0,2 L 14,18 14,16 z M 12.012626,14 10,14 l 0,2 2.012626,0 0,-2 z M 11.986693,18 10,18 l 0,2 1.986693,0 0,-2 z M 8,18 l -1.9747515,0 0,2 L 8,20 8,18 z M 8,4 10,4 10,6 8,6 8,4 z m 4,0 2,0 0,2 -2,0 0,-2 z m 3.972462,0 2,0 0,2 -2,0 0,-2 z" />
</svg>
